X: 777
T: Shengchan jieyue
%%abc-version 2.0
%%abcx-abcm2ps-target-version 5.9.1 (29 Sep 2008)
%%abc-creator hum2abc beta
%%abcx-conversion-date 2013/10/02 07:52:30
%%abc-edited-by Helmut Schaffrath
%%humdrum-veritas 1873925260
%%humdrum-veritas-data 2160142974
%%continueall 1
%%barnumbers 0
L: 1/8
M: 2/4
K: F
d f d c [I:setbarnb 1]| 
B2A2 | 
G A c G | 
G3c | 
A G D F | 
G2z2 | 
ff2d | 
c d c A | 
c A G F | 
C2z2 |]  



